images/icons/icon-checkbox-off.svg

<svg width="16" height="16" viewBox="0 0 16 16" fill="none" xmlns="http://www.w3.org/2000/svg">
<path fill-rule="evenodd" clip-rule="evenodd" d="M2.29983 1.33333C2.29859 1.33334 2.29736 1.33334 2.29612 1.33334C2.04078 1.33334 1.7959 1.43478 1.61535 1.61533C1.4348 1.79588 1.33336 2.04076 1.33336 2.2961V13.702C1.33336 13.9574 1.4348 14.2023 1.61535 14.3828C1.7959 14.5634 2.04078 14.6648 2.29612 14.6648H13.7021C13.9574 14.6648 14.2023 14.5634 14.3828 14.3828C14.5634 14.2023 14.6648 13.9574 14.6648 13.702C14.6648 13.6907 14.6651 13.6793 14.6657 13.6681V2.29609C14.6657 2.04757 14.5909 1.82251 14.3837 1.61532C14.2282 1.45981 14.1553 1.41144 14.0976 1.38594C14.0431 1.36186 13.9447 1.33333 13.7029 1.33333H2.29983ZM15.8385 14.5433C15.7241 14.8337 15.5506 15.1006 15.3256 15.3256C14.895 15.7562 14.311 15.9981 13.7021 15.9981H2.29612C1.68716 15.9981 1.10314 15.7562 0.672539 15.3256C0.241939 14.895 3.05176e-05 14.311 3.05176e-05 13.702V2.2961C3.05176e-05 1.68714 0.241939 1.10312 0.672539 0.672518C0.898436 0.446621 1.16656 0.272654 1.45835 0.158303C1.57461 0.0595657 1.72518 0 1.88966 0H13.7029C14.0404 0 14.3458 0.0379078 14.6365 0.16636C14.924 0.293391 15.1376 0.483641 15.3265 0.672511C15.808 1.15407 15.999 1.72989 15.999 2.29609V14.1094C15.999 14.2751 15.9385 14.4267 15.8385 14.5433Z" fill="#2D3440"/>
</svg>

<svg width="16" height="16" fill="none" xmlns="http://www.w3.org/2000/svg"><path fill-rule="evenodd" clip-rule="evenodd" d="M2.3 1.33a.96.96 0 0 0-.97.97v11.4a.96.96 0 0 0 .97.96h11.4a.96.96 0 0 0 .97-1V2.3a.91.91 0 0 0-.29-.68 1 1 0 0 0-.28-.23.97.97 0 0 0-.4-.06H2.3Zm13.54 13.21A2.3 2.3 0 0 1 13.7 16H2.3A2.3 2.3 0 0 1 0 13.7V2.3A2.3 2.3 0 0 1 1.46.16c.11-.1.27-.16.43-.16H13.7c.34 0 .65.04.94.17.28.12.5.31.69.5.48.48.67 1.06.67 1.63v11.8c0 .18-.06.33-.16.44Z" fill="#2D3440"/></svg>
